alura/assets/api/formacoes/categorias/inteligencia-artificial.svg

<svg width="30" height="30" viewBox="0 0 30 30" fill="none" xmlns="http://www.w3.org/2000/svg"><g clip-path="url(#clip0_4858_1518)"><path d="M23.5349 0H6.46506C2.90017 0 0 2.90017 0 6.46507V23.5349C0 27.0998 2.90017 30 6.46506 30H23.5349C27.0998 30 30 27.0998 30 23.5349V6.46507C30 2.90017 27.0998 0 23.5349 0ZM27.2856 23.5349C27.2856 25.6033 25.6033 27.2856 23.5349 27.2856H6.46506C4.3967 27.2856 2.71439 25.6033 2.71439 23.5349V16.2067H3.67226C4.15783 17.4626 5.3775 18.3559 6.80286 18.3559C7.28722 18.3559 7.74747 18.2521 8.16307 18.0663L9.83875 19.742C9.7724 19.8916 9.7157 20.0485 9.67106 20.2113C9.4328 21.0757 9.54499 21.9805 9.98774 22.7598C10.4305 23.5392 11.1501 24.1001 12.0139 24.3384C12.3106 24.4204 12.6116 24.4608 12.9114 24.4608C13.4845 24.4608 14.0509 24.3125 14.563 24.0217C15.3423 23.579 15.9033 22.8594 16.1416 21.9956C16.6338 20.2119 15.5824 18.3601 13.7987 17.8685C13.0212 17.6544 12.2316 17.7328 11.5464 18.0374L9.8695 16.3605C10.0547 15.9443 10.1584 15.4841 10.1584 15.0003C10.1584 14.5159 10.0547 14.0557 9.86891 13.6395L11.544 11.9644C11.6948 12.0308 11.8516 12.0869 12.0133 12.1315C12.3106 12.2135 12.6098 12.2527 12.9042 12.2527C14.2698 12.2527 15.5329 11.4113 16.036 10.1029H18.4385C18.4982 10.2568 18.5694 10.407 18.6527 10.5535C19.0954 11.3329 19.815 11.8938 20.6788 12.1321C20.9756 12.2141 21.2766 12.2545 21.5764 12.2545C22.1494 12.2545 22.7158 12.1062 23.2279 11.8154C24.0072 11.3727 24.5682 10.6531 24.8065 9.78928C25.2987 8.00563 24.2473 6.15381 22.4637 5.66221C20.7874 5.20016 19.052 6.10013 18.4403 7.69076H16.036C15.6656 6.73288 14.8622 5.95536 13.7981 5.66221C12.0145 5.1706 10.1627 6.22137 9.67106 8.00503C9.46236 8.76204 9.52268 9.55102 9.83875 10.2586L8.16307 11.9343C7.74686 11.7491 7.28722 11.6453 6.80286 11.6453C5.3775 11.6453 4.15783 12.5387 3.67226 13.7945H2.71439V6.46567C2.71439 4.39731 4.3967 2.71499 6.46506 2.71499H23.5349C25.6033 2.71499 27.2856 4.39731 27.2856 6.46567V23.5349ZM8.04725 15.0003C8.04725 15.6867 7.48869 16.2447 6.80286 16.2447C6.11702 16.2447 5.55845 15.6861 5.55845 15.0003C5.55845 14.3139 6.11702 13.7559 6.80286 13.7559C7.48869 13.7559 8.04725 14.3139 8.04725 15.0003ZM12.2919 20.0213C12.482 19.9133 12.6919 19.8584 12.9042 19.8584C13.0152 19.8584 13.1268 19.8735 13.2372 19.9037C13.8989 20.0859 14.2885 20.7729 14.1064 21.4346C14.0183 21.7549 13.8102 22.0221 13.5213 22.1862C13.2323 22.3503 12.8964 22.3919 12.5761 22.3038C12.2558 22.2151 11.9885 22.0076 11.8245 21.7187C11.6604 21.4298 11.6188 21.0938 11.7069 20.7735C11.7949 20.4526 12.003 20.1854 12.2919 20.0213ZM11.7062 8.566C11.8583 8.01468 12.3601 7.65216 12.9066 7.65216C13.0158 7.65216 13.1268 7.66663 13.2372 7.69679C13.8989 7.87896 14.2885 8.566 14.1064 9.22771C13.9236 9.88941 13.2372 10.2791 12.5754 10.0969C12.2552 10.0082 11.9879 9.80074 11.8239 9.51181C11.6598 9.22167 11.6182 8.8863 11.7062 8.566ZM20.3718 8.566C20.5238 8.01468 21.0256 7.65216 21.5721 7.65216C21.6813 7.65216 21.7923 7.66663 21.9027 7.69679C22.5644 7.87896 22.9541 8.566 22.7719 9.22771C22.6838 9.548 22.4757 9.81522 22.1868 9.97929C21.8979 10.1434 21.5619 10.185 21.2416 10.0969C20.9213 10.0082 20.6541 9.80074 20.49 9.51181C20.3253 9.22167 20.2837 8.8863 20.3718 8.566Z" fill="#7B71FF"/></g><defs><clipPath id="clip0_4858_1518"><rect width="30" height="30" fill="white"/></clipPath></defs></svg>

<svg xmlns="http://www.w3.org/2000/svg" fill="none" viewBox="0 0 30 30"><g clip-path="url(#clip0_4858_1518)"><path fill="#7B71FF" d="M23.535 0H6.465A6.472 6.472 0 000 6.465v17.07C0 27.1 2.9 30 6.465 30h17.07C27.1 30 30 27.1 30 23.535V6.465C30 2.9 27.1 0 23.535 0zm3.75 23.535a3.755 3.755 0 01-3.75 3.75H6.465a3.755 3.755 0 01-3.75-3.75v-7.328h.957a3.36 3.36 0 003.13 2.149c.485 0 .945-.104 1.361-.29l1.676 1.676a3.332 3.332 0 00.149 3.018 3.336 3.336 0 002.026 1.578 3.337 3.337 0 002.55-.317 3.336 3.336 0 001.578-2.025 3.36 3.36 0 00-2.343-4.127 3.342 3.342 0 00-2.253.168L9.87 16.36a3.338 3.338 0 00-.001-2.72l1.675-1.676a3.424 3.424 0 001.36.289 3.364 3.364 0 003.132-2.15h2.402c.06.154.131.304.215.45a3.336 3.336 0 002.026 1.58 3.336 3.336 0 002.55-.317 3.336 3.336 0 001.578-2.027 3.36 3.36 0 00-2.343-4.127 3.36 3.36 0 00-4.024 2.029h-2.404a3.352 3.352 0 00-2.238-2.029 3.36 3.36 0 00-4.127 2.343 3.329 3.329 0 00.168 2.254l-1.676 1.675a3.336 3.336 0 00-1.36-.289 3.36 3.36 0 00-3.13 2.15h-.959v-7.33a3.755 3.755 0 013.751-3.75h17.07a3.755 3.755 0 013.75 3.75v17.07zM8.048 15c0 .687-.558 1.245-1.244 1.245A1.246 1.246 0 015.558 15a1.246 1.246 0 012.489 0zm4.245 5.021a1.236 1.236 0 01.945-.117 1.246 1.246 0 01.284 2.282 1.238 1.238 0 01-.945.118 1.238 1.238 0 01-.752-.585 1.238 1.238 0 01-.117-.946c.088-.32.296-.588.585-.752zm-.586-11.455a1.247 1.247 0 011.531-.87c.662.183 1.052.87.87 1.532a1.247 1.247 0 01-2.283.284 1.24 1.24 0 01-.118-.946zm8.666 0a1.246 1.246 0 011.53-.87 1.246 1.246 0 01.285 2.283 1.238 1.238 0 01-.945.118 1.238 1.238 0 01-.752-.585 1.237 1.237 0 01-.118-.946z"/></g><defs><clipPath id="clip0_4858_1518"><path fill="#fff" d="M0 0h30v30H0z"/></clipPath></defs></svg>
